images/suggestededits/leveling-up-rtl.svg

<svg width="360" height="128" viewBox="0 0 360 128" fill="none" xmlns="http://www.w3.org/2000/svg">
<rect width="360" height="128" fill="white"/>
<mask id="mask0_3_612" style="mask-type:alpha" maskUnits="userSpaceOnUse" x="0" y="0" width="360" height="128">
<rect width="360" height="128" fill="white"/>
</mask>
<g mask="url(#mask0_3_612)">
<path d="M204.546 43.4026C205.65 43.4026 206.546 44.298 206.546 45.4026L206.546 62.4703C206.546 63.4234 205.632 64.3422 204.946 63.6804V63.6804C203.625 62.0489 201.607 61.0058 199.345 61.0058C195.367 61.0058 192.143 64.2299 192.143 68.2071C192.143 72.1842 195.367 75.4084 199.345 75.4084C201.526 75.4084 203.48 74.4389 204.801 72.9074C204.898 72.7938 205.018 72.6845 205.145 72.6055V72.6055C205.84 72.1743 206.546 72.8793 206.546 73.6972L206.546 91.0115C206.546 92.1161 205.65 93.0115 204.546 93.0115L187.478 93.0115C186.525 93.0115 185.606 92.0971 186.268 91.4112V91.4112C187.9 90.091 188.943 88.0725 188.943 85.8102C188.943 81.8331 185.719 78.6089 181.741 78.6089C177.764 78.6089 174.54 81.8331 174.54 85.8102C174.54 87.9911 175.51 89.9456 177.041 91.2662C177.155 91.3641 177.264 91.4833 177.343 91.6107V91.6107C177.774 92.3056 177.069 93.0115 176.251 93.0115L158.937 93.0115C157.832 93.0115 156.937 92.1161 156.937 91.0115L156.937 73.6972C156.937 72.8793 156.231 72.1743 155.536 72.6055V72.6055C155.409 72.6845 155.29 72.7938 155.192 72.9074C153.871 74.4389 151.917 75.4084 149.736 75.4084C145.758 75.4084 142.534 72.1842 142.534 68.2071C142.534 64.2299 145.758 61.0058 149.736 61.0058C151.998 61.0058 154.016 62.0489 155.337 63.6804V63.6804C156.023 64.3422 156.937 63.4234 156.937 62.4703L156.937 45.4026C156.937 44.298 157.832 43.4026 158.937 43.4026L176.251 43.4026C177.069 43.4026 177.774 42.6967 177.343 42.0017V42.0017C177.264 41.8743 177.155 41.7552 177.041 41.6573C175.51 40.3367 174.54 38.3822 174.54 36.2013C174.54 32.2241 177.764 29 181.741 29C185.719 29 188.943 32.2241 188.943 36.2013C188.943 38.4635 187.9 40.4821 186.268 41.8023V41.8023C185.606 42.4882 186.525 43.4026 187.478 43.4026L204.546 43.4026Z" fill="#FFCD70"/>
<path fill-rule="evenodd" clip-rule="evenodd" d="M177.785 59.3746H174.105V72.621H177.785V59.3746ZM177.049 60.1105H174.841V71.8851H177.049V60.1105ZM182.2 63.7901H178.521V72.621H182.2V63.7901ZM187.352 68.2055H182.936V72.621H187.352V68.2055Z" fill="#AC6600"/>
<path fill-rule="evenodd" clip-rule="evenodd" d="M157.984 153.482L158.798 104.862C158.798 104.862 150.869 90.458 150.722 89.1945C150.576 87.931 149.292 80.8261 148.777 79.1954C148.261 77.5648 147.263 75.9046 149.32 75.9954C151.377 76.0863 154.67 84.7784 154.67 84.7784C154.67 84.7784 152.847 77.6441 152.932 75.2736C153.016 72.9032 153.93 69.0253 153.93 69.0253C153.93 69.0253 155.208 66.3296 156.735 67.6152C158.263 68.9008 156.21 73.8894 156.832 76.1465C157.453 78.4036 158.099 80.9711 158.099 80.9711C158.099 80.9711 158.187 73.0695 158.787 70.9258C159.387 68.7822 160.927 67.7604 162.074 68.7258C163.222 69.6912 161.919 74.4396 161.898 77.0141C161.877 79.5886 162.495 81.918 162.495 81.918C162.495 81.918 162.662 78.0433 164.828 75.4547C166.994 72.866 169.465 69.6763 169.465 69.6763C169.465 69.6763 171.344 68.622 172.256 70.2497C173.168 71.8774 171.649 73.3241 169.699 76.6599C167.749 79.9957 167.212 81.5143 166.753 84.6917C166.295 87.869 168.071 91.0135 168.071 91.0135C168.071 91.0135 172.868 90.7618 174.297 87.6944C175.726 84.627 175.723 83.5203 175.723 83.5203C175.723 83.5203 175.659 82.0291 176.202 81.0028C176.202 81.0028 176.481 80.3512 177.595 79.5161C178.708 78.681 180.1 78.4026 180.1 78.4026C181.477 79.143 181.621 81.7256 181.465 83.866C181.308 86.0065 179.495 95.8403 175.21 100.963C170.925 106.085 170.222 107.851 170.222 107.851L172.256 153.482" fill="#E0BA9A"/>
<path d="M86.5794 14.9512L67.2715 9.04281L61.3805 28.294C60.6244 28.046 60.3208 27.85 60.0442 27.3528C59.2809 25.4682 57.7028 23.9296 55.6033 23.2871C51.9121 22.1576 48.0068 24.2254 46.8806 27.9058C45.7544 31.5861 47.8337 35.4853 51.5249 36.6149C53.6244 37.2574 55.7932 36.8654 57.4805 35.7306C58.0693 35.5582 58.4098 35.4974 59.1147 35.6984L53.2236 54.9496C73.2523 61.0785 78.2674 62.6132 99.2654 69.0388L105.156 49.7876C104.452 49.5866 104.111 49.6474 103.522 49.8198C101.835 50.9546 99.6662 51.3466 97.5667 50.7041C93.8755 49.5745 91.7962 45.6754 92.9224 41.995C94.0486 38.3146 97.9539 36.2468 101.645 37.3763C103.745 38.0188 105.323 39.5574 106.086 41.442C106.363 41.9392 106.666 42.1352 107.422 42.3832L113.313 23.132L94.0055 17.2236C93.8052 17.9264 93.8666 18.2662 94.0404 18.8539C95.1808 20.5389 95.5773 22.7031 94.9367 24.7965C93.8105 28.4769 89.9052 30.5447 86.214 29.4152C82.5228 28.2857 80.4435 24.3865 81.5697 20.7061C82.2103 18.6127 83.75 17.041 85.6381 16.2827C86.1359 16.0075 86.3319 15.705 86.5794 14.9512Z" fill="#ECB5B5"/>
<path fill-rule="evenodd" clip-rule="evenodd" d="M77.155 32.5728L80.545 33.5571L77.0014 45.7611L73.6115 44.7768L77.155 32.5728ZM83.4318 38.8063L80.0418 37.822L77.6794 45.958L81.0694 46.9423L83.4318 38.8063ZM86.9966 44.2524L82.9286 43.0712L81.7474 47.1392L85.8154 48.3204L86.9966 44.2524Z" fill="#B32424"/>
<path fill-rule="evenodd" clip-rule="evenodd" d="M86.1437 153.589L85.0658 84.4802C85.0658 84.4802 94.0565 71.5187 94.3211 70.3275C94.5856 69.1362 96.5134 62.4833 97.1662 60.9781C97.819 59.473 98.9354 57.9874 96.9635 57.8708C94.9916 57.7542 90.9902 65.7231 90.9902 65.7231C90.9902 65.7231 93.4356 59.0954 93.5889 56.8251C93.7423 54.5547 93.2537 50.7639 93.2537 50.7639C93.2537 50.7639 92.3009 48.0652 90.7163 49.141C89.1316 50.2168 90.597 55.1801 89.7808 57.2725C88.9645 59.3648 88.0946 61.7511 88.0946 61.7511C88.0946 61.7511 88.7917 54.2023 88.4312 52.0974C88.0706 49.9924 86.7014 48.8651 85.5115 49.673C84.3215 50.4808 85.0955 55.1408 84.8607 57.5996C84.6259 60.0584 83.8063 62.2201 83.8063 62.2201C83.8063 62.2201 84.0294 58.5062 82.2188 55.8219C80.4082 53.1375 78.3655 49.8496 78.3655 49.8496C78.3655 49.8496 76.6763 48.6577 75.6452 50.1208C74.6142 51.5838 75.9208 53.1145 77.4519 56.4905C78.983 59.8664 79.3452 61.3687 79.4687 64.446C79.5922 67.5233 77.5863 70.3484 77.5863 70.3484C77.5863 70.3484 73.0338 69.634 71.9733 66.5657C70.9128 63.4974 71.0246 62.4415 71.0246 62.4415C71.0246 62.4415 71.1896 61.513 70.7737 60.4801C70.7737 60.4801 69.4372 60.1271 68.3027 59.7741C67.1682 59.4211 65.8317 59.0681 65.8317 59.0681C65.8317 59.0681 65.5745 60.146 65.5119 62.204C65.4492 64.2619 66.2074 73.8251 69.7902 79.1369C73.373 84.4487 73.8691 86.2025 73.8691 86.2025L71.1662 152.318" fill="#BE6F41"/>
<path d="M254.663 54.0562C254.829 52.9641 255.849 52.2134 256.941 52.3794L273.071 54.831C273.977 54.9686 274.718 55.9701 273.99 56.5265V56.5265C272.25 57.5455 270.968 59.3131 270.641 61.4628C270.067 65.2421 272.663 68.7712 276.44 69.3453C280.217 69.9194 283.745 67.321 284.319 63.5417C284.634 61.4693 283.996 59.4721 282.732 57.9962C282.638 57.8867 282.552 57.7577 282.495 57.6252V57.6252C282.186 56.9025 282.958 56.3336 283.735 56.4517L300.1 58.9389C301.192 59.1049 301.942 60.1247 301.776 61.2167L299.287 77.5938C299.169 78.3705 299.738 79.142 300.46 78.8326V78.8326C300.592 78.7759 300.721 78.6892 300.831 78.5955C302.306 77.3308 304.302 76.6916 306.373 77.0064C310.151 77.5805 312.747 81.1096 312.172 84.8889C311.598 88.6682 308.07 91.2666 304.293 90.6925C302.145 90.366 300.379 89.0834 299.36 87.3425V87.3425C298.805 86.6148 297.804 87.3554 297.666 88.2606L295.213 104.403C295.047 105.495 294.026 106.246 292.934 106.08C273.797 103.171 268.011 102.292 249.778 99.5209C248.686 99.3549 247.933 98.3348 248.099 97.2427L250.588 80.8657C250.706 80.0889 250.138 79.3175 249.416 79.6269V79.6269C249.283 79.6836 249.154 79.7702 249.045 79.864C247.569 81.1287 245.573 81.7679 243.502 81.4531C239.725 80.879 237.129 77.3499 237.703 73.5706C238.278 69.7913 241.805 67.1929 245.582 67.7669C247.731 68.0935 249.497 69.3761 250.515 71.117V71.117C251.071 71.8447 252.072 71.1041 252.21 70.1989L254.663 54.0562Z" fill="#A3ECDC"/>
<path fill-rule="evenodd" clip-rule="evenodd" d="M272.168 73.6578L268.246 73.0247L265.967 87.1436L269.889 87.7766L272.168 73.6578ZM271.257 74.3155L268.904 73.9357L266.878 86.4858L269.231 86.8656L271.257 74.3155ZM272.192 78.4907L276.114 79.1237L274.595 88.5363L270.673 87.9032L272.192 78.4907ZM272.85 79.4017L275.203 79.7815L273.937 87.6253L271.584 87.2455L272.85 79.4017ZM280.845 84.7163L276.139 83.9566L275.379 88.6629L280.086 89.4226L280.845 84.7163Z" fill="#14866D"/>
<path fill-rule="evenodd" clip-rule="evenodd" d="M284.642 157.893L287.609 119.018C287.609 119.018 297.241 106.538 297.566 105.363C297.89 104.187 300.152 97.6453 300.88 96.1762C301.608 94.7072 302.798 93.2812 300.836 93.0646C298.874 92.848 294.475 100.598 294.475 100.598C294.475 100.598 297.253 94.1076 297.521 91.8495C297.79 89.5913 297.495 85.7831 297.495 85.7831C297.495 85.7831 296.681 83.0412 295.045 84.0344C293.408 85.0276 294.619 90.0557 293.698 92.1025C292.777 94.1493 291.787 96.4867 291.787 96.4867C291.787 96.4867 292.867 88.988 292.614 86.8689C292.361 84.7498 291.052 83.555 289.823 84.3009C288.594 85.0467 289.13 89.7369 288.771 92.179C288.411 94.621 287.483 96.7369 287.483 96.7369C287.483 96.7369 287.895 93.0415 286.224 90.2704C284.554 87.4993 282.682 84.114 282.682 84.114C282.682 84.114 281.057 82.8386 279.953 84.2464C278.85 85.6543 280.076 87.2484 281.433 90.6956C282.789 94.1427 283.074 95.6604 283.041 98.738C283.008 101.816 280.863 104.533 280.863 104.533C279.863 104.324 278.865 103.977 277.917 103.635C277.917 103.635 274.132 103.06 273.039 102.894C271.756 103.677 271.385 106.311 272.635 112.908C275.941 118.392 276.347 120.168 276.347 120.168L270.13 154.87" fill="#D7A57A"/>
</g>
</svg>

<svg xmlns="http://www.w3.org/2000/svg" width="360" height="128" fill="none" viewBox="0 0 360 128">
	<path fill="#fff" d="M0 0h360v128H0z"/>
	<mask id="mask0_3_612" width="360" height="128" x="0" y="0" maskUnits="userSpaceOnUse" style="mask-type:alpha">
		<path fill="#fff" d="M0 0h360v128H0z"/>
	</mask>
	<g mask="url(#mask0_3_612)">
		<path fill="#FFCD70" d="M204.546 43.403a2 2 0 0 1 2 2V62.47c0 .953-.914 1.872-1.6 1.21a7.201 7.201 0 1 0-.145 9.227c.097-.113.217-.222.344-.301.695-.432 1.401.273 1.401 1.091v17.314a2 2 0 0 1-2 2h-17.068c-.953 0-1.872-.914-1.21-1.6a7.201 7.201 0 1 0-9.227-.145c.114.098.223.217.302.345.431.695-.274 1.4-1.092 1.4h-17.314a2 2 0 0 1-2-2V73.697c0-.818-.706-1.523-1.401-1.091a1.556 1.556 0 0 0-.344.301 7.201 7.201 0 1 1 .145-9.227c.686.662 1.6-.257 1.6-1.21V45.403a2 2 0 0 1 2-2h17.314c.818 0 1.523-.706 1.092-1.401a1.537 1.537 0 0 0-.302-.345 7.201 7.201 0 0 1 4.7-12.657 7.201 7.201 0 0 1 4.527 12.802c-.662.686.257 1.6 1.21 1.6h17.068Z"/>
		<path fill="#AC6600" fill-rule="evenodd" d="M177.785 59.375h-3.68V72.62h3.68V59.375Zm-.736.736h-2.208v11.774h2.208V60.11Zm5.151 3.68h-3.679v8.83h3.679v-8.83Zm5.152 4.415h-4.416v4.415h4.416v-4.415Z" clip-rule="evenodd"/>
		<path fill="#E0BA9A" fill-rule="evenodd" d="m157.984 153.482.814-48.62s-7.929-14.404-8.076-15.667c-.146-1.264-1.43-8.369-1.945-10-.516-1.63-1.514-3.29.543-3.2 2.057.091 5.35 8.783 5.35 8.783s-1.823-7.134-1.738-9.504c.084-2.37.998-6.249.998-6.249s1.278-2.695 2.805-1.41c1.528 1.286-.525 6.274.097 8.532a265.884 265.884 0 0 1 1.267 4.824s.088-7.901.688-10.045 2.14-3.166 3.287-2.2c1.148.965-.155 5.714-.176 8.288-.021 2.575.597 4.904.597 4.904s.167-3.875 2.333-6.463c2.166-2.589 4.637-5.779 4.637-5.779s1.879-1.054 2.791.574c.912 1.627-.607 3.074-2.557 6.41-1.95 3.336-2.487 4.854-2.946 8.032-.458 3.177 1.318 6.322 1.318 6.322s4.797-.252 6.226-3.32c1.429-3.067 1.426-4.174 1.426-4.174s-.064-1.49.479-2.517c0 0 .279-.652 1.393-1.487 1.113-.835 2.505-1.113 2.505-1.113 1.377.74 1.521 3.323 1.365 5.463-.157 2.14-1.97 11.974-6.255 17.097-4.285 5.122-4.988 6.888-4.988 6.888l2.034 45.631" clip-rule="evenodd"/>
		<path fill="#ECB5B5" d="M86.58 14.951 67.271 9.043 61.38 28.294c-.756-.248-1.06-.444-1.336-.941a6.984 6.984 0 0 0-4.44-4.066c-3.692-1.13-7.597.938-8.723 4.619-1.127 3.68.953 7.58 4.644 8.709 2.1.642 4.268.25 5.956-.884.588-.173.929-.234 1.634-.033L53.224 54.95l46.041 14.089 5.891-19.251c-.704-.201-1.045-.14-1.634.032a6.983 6.983 0 0 1-5.955.884c-3.691-1.13-5.77-5.029-4.645-8.709 1.127-3.68 5.032-5.748 8.723-4.619a6.982 6.982 0 0 1 4.441 4.066c.277.497.58.693 1.336.941l5.891-19.251-19.308-5.908c-.2.702-.138 1.042.035 1.63a6.948 6.948 0 0 1 .897 5.943c-1.126 3.68-5.032 5.748-8.723 4.618-3.691-1.13-5.77-5.028-4.644-8.709a6.948 6.948 0 0 1 4.068-4.423c.498-.276.694-.578.941-1.332Z"/>
		<path fill="#B32424" fill-rule="evenodd" d="m77.155 32.573 3.39.984-3.544 12.204-3.39-.984 3.544-12.204Zm6.277 6.233-3.39-.984-2.363 8.136 3.39.984 2.363-8.136Zm3.565 5.446-4.068-1.18-1.182 4.067 4.068 1.181 1.182-4.068Z" clip-rule="evenodd"/>
		<path fill="#BE6F41" fill-rule="evenodd" d="M86.144 153.589 85.066 84.48s8.99-12.961 9.255-14.153c.265-1.19 2.192-7.844 2.845-9.349s1.77-2.99-.203-3.107c-1.971-.117-5.973 7.852-5.973 7.852s2.446-6.628 2.599-8.898c.153-2.27-.335-6.061-.335-6.061s-.953-2.699-2.538-1.623c-1.584 1.076-.119 6.04-.935 8.132-.817 2.092-1.686 4.478-1.686 4.478s.697-7.549.336-9.654c-.36-2.105-1.73-3.232-2.92-2.424-1.19.808-.415 5.468-.65 7.927-.235 2.458-1.055 4.62-1.055 4.62s.223-3.714-1.587-6.398c-1.81-2.684-3.853-5.972-3.853-5.972s-1.69-1.192-2.72.27c-1.032 1.464.275 2.995 1.806 6.37 1.531 3.376 1.893 4.879 2.017 7.956.123 3.077-1.883 5.902-1.883 5.902s-4.552-.714-5.613-3.782c-1.06-3.069-.948-4.125-.948-4.125s.165-.928-.251-1.96c0 0-1.337-.354-2.471-.707-1.135-.353-2.471-.706-2.471-.706s-.257 1.078-.32 3.136.695 11.621 4.278 16.933c3.583 5.312 4.08 7.066 4.08 7.066l-2.704 66.115" clip-rule="evenodd"/>
		<path fill="#A3ECDC" d="M254.663 54.056a2 2 0 0 1 2.278-1.677l16.13 2.452c.906.138 1.647 1.14.919 1.695a6.91 6.91 0 0 0-3.349 4.937 6.92 6.92 0 0 0 5.799 7.882 6.92 6.92 0 0 0 7.879-5.803 6.906 6.906 0 0 0-1.587-5.546 1.491 1.491 0 0 1-.237-.37c-.309-.723.463-1.292 1.24-1.174l16.365 2.487a2 2 0 0 1 1.676 2.278l-2.489 16.377c-.118.777.451 1.548 1.173 1.239a1.51 1.51 0 0 0 .371-.237 6.919 6.919 0 0 1 11.341 6.293 6.92 6.92 0 0 1-7.879 5.803 6.905 6.905 0 0 1-4.933-3.35c-.555-.727-1.556.013-1.694.919l-2.453 16.142a2.001 2.001 0 0 1-2.279 1.677l-43.156-6.56a2.002 2.002 0 0 1-1.679-2.277l2.489-16.377c.118-.777-.45-1.549-1.172-1.24a1.47 1.47 0 0 0-.371.238 6.902 6.902 0 0 1-5.543 1.59 6.92 6.92 0 0 1-5.799-7.883 6.92 6.92 0 0 1 7.879-5.804 6.902 6.902 0 0 1 4.933 3.35c.556.728 1.557-.013 1.695-.918l2.453-16.143Z"/>
		<path fill="#14866D" fill-rule="evenodd" d="m272.168 73.658-3.922-.633-2.279 14.119 3.922.633 2.279-14.12Zm-.911.657-2.353-.38-2.026 12.55 2.353.38 2.026-12.55Zm.935 4.176 3.922.633-1.519 9.412-3.922-.633 1.519-9.412Zm.658.91 2.353.38-1.266 7.844-2.353-.38 1.266-7.843Zm7.995 5.315-4.706-.76-.76 4.707 4.707.76.759-4.707Z" clip-rule="evenodd"/>
		<path fill="#D7A57A" fill-rule="evenodd" d="m284.642 157.893 2.967-38.875s9.632-12.48 9.957-13.655c.324-1.176 2.586-7.718 3.314-9.187.728-1.469 1.918-2.895-.044-3.111-1.962-.217-6.361 7.533-6.361 7.533s2.778-6.49 3.046-8.748c.269-2.259-.026-6.067-.026-6.067s-.814-2.742-2.45-1.749c-1.637.994-.426 6.022-1.347 8.069-.921 2.046-1.911 4.384-1.911 4.384s1.08-7.499.827-9.618c-.253-2.12-1.562-3.314-2.791-2.568-1.229.746-.693 5.436-1.052 7.878-.36 2.442-1.288 4.558-1.288 4.558s.412-3.695-1.259-6.467c-1.67-2.77-3.542-6.156-3.542-6.156s-1.625-1.275-2.729.132c-1.103 1.408.123 3.002 1.48 6.45 1.356 3.447 1.641 4.964 1.608 8.042-.033 3.078-2.178 5.795-2.178 5.795-1-.209-1.998-.556-2.946-.898l-4.878-.741c-1.283.783-1.654 3.417-.404 10.014 3.306 5.484 3.712 7.26 3.712 7.26l-6.217 34.702" clip-rule="evenodd"/>
	</g>
</svg>
